X:1
T:Chi vuol seguir
T:Giovanni Animuccia
T:Source : Primo libro delle Laude spirituali a tre voci---Roma---A.Gardano---1583._ Editor: André Vierendeels (20/11/17). Notes : Original clefs : C1, C3, C3 Original note values have been quartered in 3-beat measures Editorial accidentals above the staff
T:Chi vuol seguir
T:©
T:©
C:Giovanni Animuccia
Z:©
%%score [ 1 2 3 ]
L:1/8
Q:1/4=120
M:3/4
K:F
V:1 treble nm="Soprano" snm="S"
V:2 treble nm="Alto" snm="A"
V:3 treble-8 nm="Tenor" snm="T"
V:1
"^1)" z2 A4 | F4 A2 | G4 G2 | A4 A2 | z2 c4 | B4 A2 | G4 G2 | F4 F2 :: G2 G2 G2 | G4 F2 | E4 E2 | %11
w: Chi|vuol se-|guir la|guer- ra|per|far del|Ciel' ac-|qui- sto,|su le- vi-|si da|ter- ra,|
w: Chi|non ha|cuor non|va- da,|chi|tme d'ar-|c'o si-|om- ba,|ri- tor- ni-|si per|stra- da,|
 z2 A4 |[M:4/4] F4 E4 | D3 C D2 E2 | F2 G2 E4 | D8 :| %16
w: et|ven- g'à|far- si ca- va-|lier di Chri-|sto.|
w: che|poi non|fug- g'al pri- mo|suon di tom-|ba.|
V:2
"^2)""^1)" z2 F4 | D4 F2 | E4 E2 | F4 F2 | z2 F4 | D4 F2 | E4 E2 | F4 F2 :: E2 E2 E2 | E4 D2 | %10
w: Chi|vuol se-|guir la|guer- ra|per|far del|Ciel' ac-|qui- sto,|su le- vi-|si da|
w: Tu|dol- ce|mio Si-|gno- re|per-|ch'io nin|fui- si|vin- to,|sof- frit- ti'o-|gni do-|
 C4 C2 | z2 F4 |[M:4/4] D4 C4 | B,3 A, B,2 C2 |"^#" D2 D4 C2 | D8 :| %16
w: ter- ra,|et|ven- g'à|far- si ca- va-|lier di Chri-|sto.|
w: lo- re,|e'n|cam- po'a-|per- to ri- ma-|no- sti'e- stin-|to.|
V:3
"^3)""^1)""^4)""^5)" z2 F4 | B4 d2 | c4 c2 | F4 F2 | z2 F4 | G4 F2 | c4 c2 | F4 F2 :: c2 c2 c2 | %9
w: Chi|vuol se-|guir la|guer- ra|per|far del|Ciel' ac-|qui- sto,|su le- vi-|
w: Et|in per|te ne|fo- co|sop-|por- to,|ne fla-|gel- lo,|ma te- mo'un|
w: Oh|che gra-|ve cor-|do- glio,|lo|scu- do|che git-|ta- i,|hog- gi ri-|
 c4 d2 | A4 A2 | z2 F4 |[M:4/4] B4 A4 | G3 F G2 A2 | B2 G2 A4 | D8 :| %16
w: si da|ter- ra,|et|ven- g'à|far- si ca- va-|lier di Chri-|sto.|
w: pic- ciol|gio- co|de'|fian- ciul-|li, che di- can'|vel- lo vel-|lo.|
w: pi- gliar|vo- glio,|ri-|pi- gliar|vo- glio'e non la-|sciar lo ma-|i.|

